X: 17
T: TON COEUR MA MIGNONNE
M: 3/4
L: 1/8
Q:1/4=80
K:G
|DGG ABG|A/2B/2c2 BA2|DGG ABG|A/2B/2c2 BA2|
B/2c/2d2 Bd2|BcA ABG|B/2c/2d2 Bd2|BcA FG3/2|
